X: 1106
T: Barney O'Neill
R:double jig
N:"collected by O'Reilly"
B:O'Neill's 1106
Z:Transcribed by henrik.norbeck@mailbox.swipnet.se
M:6/8
L:1/8
K:D
(d/B/)|AFD DFA|B2d F2A|AFD DEF|GFG EFG|
AFD DFA|B2d F2A|Bdd F2E|FDD D2:|
g|fed dAd|efe efg|fed faa|agf eag|
fed B2d|A2d F2A|Bdd F2E|FDD D2:|


